!!!OTL: WOLAUF GUT GSELL
!!!ARE: Europa, Mitteleuropa, Deutschland
!!!SCT: E0752
!!!YEM: Copyright 1995, estate of Helmut Schaffrath.
**kern
*ICvox
*Ivox
*M4/4
*k[b-]
*F:
{4f
=1
4f
4cc
4a
4f
=2
2g
4a}
{4a
=3
2dd
4cc
4cc
=4
4b-
4a
2g
=5
2f
4r}
{4f
=6
4f
4cc
4a
4f
=7
2g
4a}
{4a
=8
2dd
4cc
4cc
=9
4b-
4a
2g
=10
2f
4r}
{4f
=11
4a
4a
4f
4f
=12
2g
4f}
{4cc
=13
2g
4cc
4b-
=14
4b-
4a
2g
=15
4r}
{4cc
4cc
4cc
=16
4cc
2cc
4b-
=17
4a
8g
8f
2g
=18
4f}
{4f
4f
4f
=19
4b-
4a
2g
=20
2.f}
==
!!!AGN: Abschieds - Lied, Wander - Lied
!!!ONB: ESAC (Essen Associative Code) Database: ERK2
!!!AMT: simple quadruple
!!!AIN: vox
!!!EED: Helmut Schaffrath
!!!EEV: 1.0
*-
